!!!COM:	Josquin des Pres?
**kern	**kern
*part2	*part1
*staff2	*staff1
*clefGv2	*clefG2
*k[b-]	*k[b-]
*M2/1	*M2/1
=1-	=1-
0r	0dd
=2	=2
0r	1cc
.	[1dd
=3	=3
0r	1dd]
.	1b-
=4	=4
0g	1b-
.	1g
=5	=5
1f	1a
[1g	1b-
=6	=6
1g]	0g
1e	.
=7	=7
1e	1.cc
1c	.
.	2b-
=8	=8
1d	1a
1e	1g
=9	=9
0c	1.cc
.	2b-
=10	=10
1.f	1.a
2e	2g
=11	=11
1d	2f
.	4e
.	4d
1c	1e
=12	=12
1.f	1.d
2e	2e
=13	=13
1.d	2f
.	4g
.	4a
.	2b-
2c	[2a
=14	=14
2B-	4a]
.	4g
4A	1g
4G	.
1A	.
.	2f
=15	=15
0G	0g
==	==
*-	*-
